static/img/svg/bxs-sun.svg

<svg xmlns="http://www.w3.org/2000/svg" width="24" height="24"><path d="M7.993 12c0 2.209 1.798 4.007 4.007 4.007s4.007-1.798 4.007-4.007S14.209 7.993 12 7.993 7.993 9.791 7.993 12zM18.707 17.293l-1.414 1.414-2-2 1.414-1.414zM7.293 8.707l-2-2 1.414-1.414 2 2zM3.513 11h2.829v2H3.513zM17.655 11h2.828v2h-2.828zM10.998 3.515h2v2.829h-2zM10.998 17.657h2v2.828h-2zM15.291 7.294l2.002-2.001 1.414 1.414-2.001 2.001zM6.706 18.707l-1.414-1.414 1.999-2 1.414 1.415z"/></svg>

<svg xmlns="http://www.w3.org/2000/svg" width="24" height="24" viewBox="0 0 24 24"><path d="M7.993,12c0,2.209,1.798,4.007,4.007,4.007s4.007-1.798,4.007-4.007S14.209,7.993,12,7.993S7.993,9.791,7.993,12z"/><path transform="rotate(134.999 17 17)" d="M16 15.586H18V18.414H16z"/><path transform="rotate(-134.999 7 7)" d="M5.586 6H8.414V8H5.586z"/><path d="M3.513 11H6.3420000000000005V13H3.513zM17.655 11H20.483V13H17.655zM10.998 3.515H12.998V6.344H10.998zM10.998 17.657H12.998V20.485H10.998z"/><path transform="rotate(-45.001 16.999 7)" d="M15.584 6.001H18.414V8.001000000000001H15.584z"/><path transform="rotate(-134.999 6.999 17)" d="M5.999 15.587H7.999V18.414H5.999z"/></svg>
